src/img/production/production-bg.svg

<svg width="1920" height="1661" fill="none" xmlns="http://www.w3.org/2000/svg"><g style="mix-blend-mode:darken"><mask id="mask0_1726_45" style="mask-type:alpha" maskUnits="userSpaceOnUse" x="-28" y="-1" width="2236" height="1663"><rect x="-28" y="1661" width="1661" height="2236" rx="6" transform="rotate(-90 -28 1661)" fill="#FAF9F8" fill-opacity=".85"/></mask><g mask="url(#mask0_1726_45)"><ellipse cx="198.822" cy="1067.76" rx="198.822" ry="1067.76" transform="matrix(.77645 -.63018 .70874 .70547 -61.522 492.689)" fill="url(#paint0_radial_1726_45)"/><ellipse cx="265.727" cy="809.977" rx="265.727" ry="809.977" transform="matrix(-.75684 .6536 -.73027 -.68315 1946.24 625.979)" fill="url(#paint1_radial_1726_45)"/><ellipse cx="227.358" cy="1718.86" rx="227.358" ry="1718.86" transform="matrix(-.75684 .6536 -.73027 -.68315 2642.81 1900.58)" fill="url(#paint2_radial_1726_45)" fill-opacity=".7"/><ellipse cx="1359.47" cy="246.127" rx="1359.47" ry="246.127" transform="scale(-1.0518 -.94537) rotate(45 2079.05 -2975.07)" fill="url(#paint3_radial_1726_45)"/></g></g><g filter="url(#filter0_b_1726_45)"><path fill-rule="evenodd" clip-rule="evenodd" d="M922.173 1219.35c225.977 0 409.177-183.2 409.177-409.177 0-225.98-183.2-409.173-409.177-409.173C696.193 401 513 584.193 513 810.173c0 225.977 183.193 409.177 409.173 409.177zm.362-110.08c165.385 0 299.455-134.073 299.455-299.459 0-165.385-134.07-299.457-299.455-299.457S623.078 644.426 623.078 809.811c0 165.386 134.072 299.459 299.457 299.459z" fill="#fff" fill-opacity=".4"/></g><g filter="url(#filter1_b_1726_45)"><path fill-rule="evenodd" clip-rule="evenodd" d="M922.5 1465c361.47 0 654.5-293.03 654.5-654.5S1283.97 156 922.5 156 268 449.03 268 810.5 561.03 1465 922.5 1465zm.443-153.22c277.097 0 501.727-224.63 501.727-501.723 0-277.095-224.63-501.724-501.727-501.724-277.095 0-501.724 224.629-501.724 501.724 0 277.093 224.629 501.723 501.724 501.723z" fill="#fff" fill-opacity=".3"/></g><defs><radialGradient id="paint0_radial_1726_45" cx="0" cy="0" r="1" gradientUnits="userSpaceOnUse" gradientTransform="scale(198.822 1067.76) rotate(90 0 1)"><stop stop-color="#D1D1D1"/><stop offset="1" stop-color="#F0F0F0" stop-opacity="0"/></radialGradient><radialGradient id="paint1_radial_1726_45" cx="0" cy="0" r="1" gradientUnits="userSpaceOnUse" gradientTransform="scale(265.727 809.977) rotate(90 0 1)"><stop stop-color="#D1D1D1"/><stop offset="1" stop-color="#F0F0F0" stop-opacity="0"/></radialGradient><radialGradient id="paint2_radial_1726_45" cx="0" cy="0" r="1" gradientUnits="userSpaceOnUse" gradientTransform="matrix(0 1718.86 -227.358 0 227.358 1718.86)"><stop stop-color="#D1D1D1"/><stop offset="1" stop-color="#F0F0F0" stop-opacity="0"/></radialGradient><radialGradient id="paint3_radial_1726_45" cx="0" cy="0" r="1" gradientUnits="userSpaceOnUse" gradientTransform="scale(1359.47 246.127) rotate(90 0 1)"><stop stop-color="#D1D1D1"/><stop offset="1" stop-color="#F0F0F0" stop-opacity="0"/></radialGradient><filter id="filter0_b_1726_45" x="453" y="341" width="938.347" height="938.346" filterUnits="userSpaceOnUse" color-interpolation-filters="sRGB"><feFlood flood-opacity="0" result="BackgroundImageFix"/><feGaussianBlur in="BackgroundImageFix" stdDeviation="30"/><feComposite in2="SourceAlpha" operator="in" result="effect1_backgroundBlur_1726_45"/><feBlend in="SourceGraphic" in2="effect1_backgroundBlur_1726_45" result="shape"/></filter><filter id="filter1_b_1726_45" x="208" y="96" width="1429" height="1429" filterUnits="userSpaceOnUse" color-interpolation-filters="sRGB"><feFlood flood-opacity="0" result="BackgroundImageFix"/><feGaussianBlur in="BackgroundImageFix" stdDeviation="30"/><feComposite in2="SourceAlpha" operator="in" result="effect1_backgroundBlur_1726_45"/><feBlend in="SourceGraphic" in2="effect1_backgroundBlur_1726_45" result="shape"/></filter></defs></svg>

<svg width="1920" height="1661" viewBox="0 0 1920 1661" fill="none" xmlns="http://www.w3.org/2000/svg">
<g style="mix-blend-mode:darken">
<mask id="mask0_1726_45" style="mask-type:alpha" maskUnits="userSpaceOnUse" x="-28" y="-1" width="2236" height="1663">
<rect x="-28" y="1661" width="1661" height="2236" rx="6" transform="rotate(-90 -28 1661)" fill="#FAF9F8" fill-opacity="0.85"/>
</mask>
<g mask="url(#mask0_1726_45)">
<ellipse cx="198.822" cy="1067.76" rx="198.822" ry="1067.76" transform="matrix(0.776451 -0.630178 0.708744 0.705465 -61.5215 492.689)" fill="url(#paint0_radial_1726_45)"/>
<ellipse cx="265.727" cy="809.977" rx="265.727" ry="809.977" transform="matrix(-0.756844 0.653595 -0.730274 -0.683154 1946.24 625.979)" fill="url(#paint1_radial_1726_45)"/>
<ellipse cx="227.358" cy="1718.86" rx="227.358" ry="1718.86" transform="matrix(-0.756844 0.653595 -0.730274 -0.683154 2642.81 1900.58)" fill="url(#paint2_radial_1726_45)" fill-opacity="0.7"/>
<ellipse cx="1359.47" cy="246.127" rx="1359.47" ry="246.127" transform="matrix(-0.743734 -0.668475 0.743734 -0.668476 1572.17 2213.58)" fill="url(#paint3_radial_1726_45)"/>
</g>
</g>
<g filter="url(#filter0_b_1726_45)">
<path fill-rule="evenodd" clip-rule="evenodd" d="M922.173 1219.35C1148.15 1219.35 1331.35 1036.15 1331.35 810.173C1331.35 584.193 1148.15 401 922.173 401C696.193 401 513 584.193 513 810.173C513 1036.15 696.193 1219.35 922.173 1219.35ZM922.535 1109.27C1087.92 1109.27 1221.99 975.197 1221.99 809.811C1221.99 644.426 1087.92 510.354 922.535 510.354C757.15 510.354 623.078 644.426 623.078 809.811C623.078 975.197 757.15 1109.27 922.535 1109.27Z" fill="white" fill-opacity="0.4"/>
</g>
<g filter="url(#filter1_b_1726_45)">
<path fill-rule="evenodd" clip-rule="evenodd" d="M922.5 1465C1283.97 1465 1577 1171.97 1577 810.5C1577 449.03 1283.97 156 922.5 156C561.03 156 268 449.03 268 810.5C268 1171.97 561.03 1465 922.5 1465ZM922.943 1311.78C1200.04 1311.78 1424.67 1087.15 1424.67 810.057C1424.67 532.962 1200.04 308.333 922.943 308.333C645.848 308.333 421.219 532.962 421.219 810.057C421.219 1087.15 645.848 1311.78 922.943 1311.78Z" fill="white" fill-opacity="0.3"/>
</g>
<defs>
<filter id="filter0_b_1726_45" x="453" y="341" width="938.347" height="938.346" filterUnits="userSpaceOnUse" color-interpolation-filters="sRGB">
<feFlood flood-opacity="0" result="BackgroundImageFix"/>
<feGaussianBlur in="BackgroundImageFix" stdDeviation="30"/>
<feComposite in2="SourceAlpha" operator="in" result="effect1_backgroundBlur_1726_45"/>
<feBlend mode="normal" in="SourceGraphic" in2="effect1_backgroundBlur_1726_45" result="shape"/>
</filter>
<filter id="filter1_b_1726_45" x="208" y="96" width="1429" height="1429" filterUnits="userSpaceOnUse" color-interpolation-filters="sRGB">
<feFlood flood-opacity="0" result="BackgroundImageFix"/>
<feGaussianBlur in="BackgroundImageFix" stdDeviation="30"/>
<feComposite in2="SourceAlpha" operator="in" result="effect1_backgroundBlur_1726_45"/>
<feBlend mode="normal" in="SourceGraphic" in2="effect1_backgroundBlur_1726_45" result="shape"/>
</filter>
<radialGradient id="paint0_radial_1726_45" cx="0" cy="0" r="1" gradientUnits="userSpaceOnUse" gradientTransform="translate(198.822 1067.76) rotate(90) scale(1067.76 198.822)">
<stop stop-color="#D1D1D1"/>
<stop offset="1" stop-color="#F0F0F0" stop-opacity="0"/>
</radialGradient>
<radialGradient id="paint1_radial_1726_45" cx="0" cy="0" r="1" gradientUnits="userSpaceOnUse" gradientTransform="translate(265.727 809.977) rotate(90) scale(809.977 265.727)">
<stop stop-color="#D1D1D1"/>
<stop offset="1" stop-color="#F0F0F0" stop-opacity="0"/>
</radialGradient>
<radialGradient id="paint2_radial_1726_45" cx="0" cy="0" r="1" gradientUnits="userSpaceOnUse" gradientTransform="translate(227.358 1718.86) rotate(90) scale(1718.86 227.358)">
<stop stop-color="#D1D1D1"/>
<stop offset="1" stop-color="#F0F0F0" stop-opacity="0"/>
</radialGradient>
<radialGradient id="paint3_radial_1726_45" cx="0" cy="0" r="1" gradientUnits="userSpaceOnUse" gradientTransform="translate(1359.47 246.127) rotate(90) scale(246.127 1359.47)">
<stop stop-color="#D1D1D1"/>
<stop offset="1" stop-color="#F0F0F0" stop-opacity="0"/>
</radialGradient>
</defs>
</svg>
